dist/icons/activities/7.svg

<svg width="40" height="40" viewBox="0 0 40 40" fill="none" xmlns="http://www.w3.org/2000/svg">
<g clip-path="url(#clip0)">
<path d="M36.41 25.9996H26.0003V21.9995H23.3336V17.838C23.3336 16.4127 23.9482 15.0739 24.9776 14.2553C26.899 12.7292 28.0004 10.4485 28.0004 7.99904C28.0004 5.72163 27.025 3.54556 25.325 2.02884C23.6262 0.512794 21.3415 -0.20923 19.0621 0.0527791C15.4933 0.458793 12.5545 3.33422 12.0745 6.88901C11.6945 9.7051 12.7792 12.4445 14.9766 14.2179C16.0346 15.0719 16.6667 16.4713 16.6667 17.96V21.9995H13.9999V25.9996H3.59023C2.71354 25.9996 1.99951 26.713 1.99951 27.5904V35.0766C1.99951 35.9533 2.71287 36.6673 3.59023 36.6673H4.06025C4.37892 38.5561 6.02165 40.0008 8.00038 40.0008H32.0012C33.9792 40.0008 35.622 38.5561 35.9413 36.6673H36.4113C37.288 36.6673 38.002 35.954 38.002 35.0766V27.5904C38.0007 26.7137 37.2873 25.9996 36.41 25.9996ZM15.814 13.1805C13.9826 11.7025 13.0785 9.41709 13.3966 7.06768C13.7966 4.10891 16.2433 1.71683 19.2141 1.37749C21.1468 1.16015 23.0015 1.74217 24.4376 3.02421C25.855 4.28825 26.6677 6.10165 26.6677 7.99971C26.6677 10.0404 25.7496 11.9398 24.1489 13.2119C22.7835 14.2973 22.0008 15.9833 22.0008 17.838V21.9995H18.0007V17.9607C18 16.0446 17.2033 14.3019 15.814 13.1805ZM15.3333 23.3329H16.6667H23.3336H24.6669V25.9996H15.3333V23.3329ZM32.0005 38.6667H7.99971C6.75967 38.6667 5.71364 37.816 5.41763 36.6667H34.5826C34.2866 37.816 33.2412 38.6667 32.0005 38.6667ZM36.6673 35.0766C36.6673 35.2186 36.552 35.334 36.41 35.334H36.0006H3.99958H3.59023C3.44823 35.334 3.33289 35.2186 3.33289 35.0766V27.5904C3.33289 27.4484 3.44823 27.333 3.59023 27.333H13.9999H26.0003H36.41C36.552 27.333 36.6673 27.4484 36.6673 27.5904V35.0766Z" fill="#DEC377"/>
</g>
<defs>
<clipPath id="clip0">
<rect width="40" height="40" fill="white"/>
</clipPath>
</defs>
</svg>

<svg width="40" height="40" fill="none" xmlns="http://www.w3.org/2000/svg"><g clip-path="url(#clip0)"><path d="M36.41 26H26v-4h-2.666v-4.162c0-1.425.614-2.764 1.644-3.583A7.949 7.949 0 0028 8a8.01 8.01 0 00-2.675-5.97A8.037 8.037 0 0019.062.053c-3.569.406-6.508 3.281-6.988 6.836-.38 2.816.705 5.555 2.903 7.329 1.058.854 1.69 2.253 1.69 3.742V22H14v4H3.59C2.714 26 2 26.713 2 27.59v7.487c0 .876.713 1.59 1.59 1.59h.47A4.003 4.003 0 008 40.001h24.001a4.004 4.004 0 003.94-3.334h.47c.877 0 1.591-.713 1.591-1.59V27.59A1.595 1.595 0 0036.41 26zM15.814 13.18c-1.831-1.477-2.736-3.763-2.417-6.112.4-2.96 2.846-5.351 5.817-5.69 1.933-.218 3.788.364 5.224 1.646A6.673 6.673 0 0126.668 8c0 2.04-.918 3.94-2.52 5.212-1.364 1.085-2.147 2.771-2.147 4.626V22h-4v-4.04c-.001-1.915-.798-3.658-2.187-4.78zm-.48 10.153h9.333V26h-9.334v-2.667zM32 38.667H8a2.67 2.67 0 01-2.582-2h29.165a2.67 2.67 0 01-2.582 2zm4.667-3.59a.258.258 0 01-.257.257H3.59a.258.258 0 01-.257-.257V27.59c0-.142.115-.257.257-.257h32.82c.142 0 .257.115.257.257v7.487z" fill="#DEC377"/></g><defs><clipPath id="clip0"><path fill="#fff" d="M0 0h40v40H0z"/></clipPath></defs></svg>
